X: 1
T: Kilmoulis, The
M: 6/8
L: 1/8
R: jig
K: Dmaj
fef efe | d2 F FEF | GFG BAG | ABd ede |
fef efe | d2 F FEF | GFG BAG |ABc d2 e :|
f3 fed | g3 gfe | f3 fed | dcB ABd |
f3 fed | g3 gfe | fef afd |1 cBc d2 e :|2 cBc d2 A ||
dfa dfa | cde ecA | gfe fed | Bed cBA |
dfa dfa | cde ecA | gfe fed | cBc d2 A :|
